X:19
T: Petrus und Pilatus
N: D0019A
O: Europa, Mitteleuropa, Lothringen, Metz ( St. Vinzent )
N: Variante zu D0019
R: Kinder - Spiel
M: 2/4
L: 1/16
K: G
D2 | G2f2G2A2 | _B4=f4 |
B4c4 | d4z2
d2 | _e2d2d2cc | d4_B2
d2 | c2_B2A2G2 | A4D4- | D4
G2G2 | F4G4 | G6

@@@ Tune index: 2541
